!!!!SEGMENT: pl-kk--kk-i-276--001_anonim--missa-rorate-caeli-desuper-initiale.krn
!!!cenid: 17xx:2084
!!!COM: Anonim
!!!COM-rismID: pe30004985
!!!CDT:
!!!CNT:
!!!OPR: Missa Rorate caeli desuper
!!!OTL: Initiale
!!!OMV: 001
!!!PDT:
!!!AGN: Sacred; Mass
!!!SMS-siglum: PL-Kk
!!!SMS-shelfmark: Kk.I.276
!!!SMS-shelfwork: 001-001 M
!!!SMS-variant:
!!!SMS-altvar:
!!!NIFC-rismSourceID: 1001147328
!!!NIFC-islandoraID: pl-kk:4886
!!!URL-pdf-islandora: https://repozytorium.nifc.pl/islandora/object/pl-kk%3A4886/datastream/PDF/view
!!!URL-scan: https://polish.musicsources.pl/pl/lokalizacje/galeria/rekopisy/5894 @EN{Scan on Polish Music Sources Website} @PL{Skany w portalu Dziedzictwo Muzyki Polskiej w otwartym dostępie}
!!!ONB-nifc: UWAGA: części: 1. Initiale (Rorate caeli + Benedixisti + Gloria patri), 2. Kyrie, 3. Alleluia Ave Maria
!!!AIN: 1 empty
!!!key:
**kern	**text
*Iempty	*
*I"Baſso Ripieno.	*
*I'B rip	*
*clefF4	*
*k[b-]	*
*F:	*
*M2/1	*
*met(C|)	*
=1-	=1-
*lig	*
!LO:TX:t=P:problem=przy kluczu BB- B-	!
!LO:TX:a:t=Initiale	!
1C	Ro-
1D	.
*Xlig	*
=2-	=2-
*lig	*
1D	-ra-
1C	.
*Xlig	*
=3-	=3-
!LO:TX:t=P:problem=cezura pod 1. linią	!
2FF,</	-te
*2\right	*
2.F\	cae-
4E/	.
4D/	.
!LO:TX:t=P:problem=kreska pseudotaktowa	!
4C/	.
=4-	=4-
4BB-X/	.
4AA/	.
2BB-/	.
!LO:TX:t=P:problem=cezura na 1. linii	!
2AA,</	-li
2.A\	cae-
=5-	=5-
.	.
4G\	.
4F\	.
!LO:TX:t=P:problem=kreska pseudotaktowa	!
4E\	.
2D\	.
2F\	.
=6-	=6-
!LO:TX:t=P:problem=kreska pseudotaktowa	!
1E	.
!LO:TX:t=P:problem=cezura na 3. linii	!
2D,<\	-li
2.F\	de-
=7-	=7-
.	.
4E\	.
4F\	.
!LO:TX:t=P:problem=kreska pseudotaktowa	!
4G\	.
4A\	.
4AA/	.
4C/	.
4D/	.
=8-	=8-
2.E\	.
!LO:TX:t=P:problem=kreska pseudotaktowa	!
4D\	.
!LO:LB:g=original	!
4C/	.
4AA/	.
4A\	.
4G\	.
=9-	=9-
2F\	.
!LO:TX:t=P:problem=kreska pseudotaktowa	!
2G\	.
4A\	.
4B-\	.
1c\	.
=10-	=10-
.	.
4Bn\	.
!LO:TX:t=P:problem=kreska pseudotaktowa	!
4A\	.
2.B\	.
4B\	-su-
=11-	=11-
!LO:TX:t=P:problem=cezura na 5. linii	!
2c,<\	-per
!LO:TX:t=P:problem=kreska pseudotaktowa	!
2C/	et
2E\	.
2.G\	.
=12-	=12-
.	.
4F\	.
4E\	.
!LO:TX:t=P:problem=kreska pseudotaktowa	!
4D\	.
4C/	.
4BB-/	.
4AA/	.
8BB-/L	.
!LO:TX:t=P:problem=kreska pseudotaktowa	!
8C/J	.
=13-	=13-
4D\	.
4E\	.
2.F\	nu-
4E\	.
4D\	.
4C\	.
=14-	=14-
4BB-/	.
4AA/	.
!LO:TX:t=P:problem=kreska pseudotaktowa	!
2BB-/	.
!LO:TX:t=P:problem=cezura na 1. linii	!
2AA,</	-bes
2.A\	plu-
=15-	=15-
.	.
4G\	.
4F\	.
!LO:TX:t=P:problem=kreska pseudotaktowa	!
4E\	.
!LO:LB:g=original	!
4D\	.
4E\	.
1F\	.
=16-	=16-
.	.
!LO:TX:t=P:problem=cezura na 3. linii	!
!LO:TX:t=P:problem=kreska pseudotaktowa	!
2E,<\	-ant
4F\	Ju-
4G\	.
4A\	.
4G\	.
=17-	=17-
4F\	.
4E\	.
4D\	.
!LO:TX:t=P:problem=kreska pseudotaktowa	!
4C\	.
2BB-X/	.
2C/	.
=18-	=18-
2D/	.
2AA/	.
2BB-X/	.
2C/	.
=19-	=19-
!LO:TX:t=P:problem=kreska pseudotaktowa	!
1F	-stum
0r	.
=20-	=20-
.	.
2C/	a-
2.D\	-pe-
=21-	=21-
.	.
4E\	-ri-
1F	-a-
!LO:TX:t=P:problem=kreska pseudotaktowa	!
2C/	-tur
=22-	=22-
4C/	Ter-
4BB-/	.
4GG/	.
4AA/	.
4BB-/	.
4C/	.
4D/	.
4C/	.
=23-	=23-
2BB-/	.
4C/	.
!LO:TX:t=P:problem=kreska pseudotaktowa	!
4BB-/	.
4AA/	.
8GG/L	.
8AA/J	.
2.BB-/	.
=24-	=24-
.	.
4AA/	.
4GG/	.
!LO:TX:t=P:problem=kreska pseudotaktowa	!
4FF/	.
!LO:LB:g=original	!
(2GG/	.
2G\)	.
=25-	=25-
!LO:TX:t=P:problem=cezura na 3. linii	!
2D,<\	-re
1BB-	Ter-
!LO:TX:t=P:problem=kreska pseudotaktowa	!
2AA/	.
=26-	=26-
2GG/	.
2C/	.
!LO:TX:t=P:problem=cezura na 3. linii	!
!LO:TX:t=P:problem=kreska pseudotaktowa	!
1F,<	-ra
=27-	=27-
1C	et
4.D/	ger-
8C/	.
4.BB-/	.
!LO:TX:t=P:problem=kreska pseudotaktowa	!
8AA/	.
=28-	=28-
4BB-/	.
4AA/	.
2.GG/	.
4AA/	.
4BB-/	.
!LO:TX:t=P:problem=kreska pseudotaktowa	!
4C/	.
=29-	=29-
4D\	.
4E\	.
1F	-mi-
!LO:TX:t=P:problem=kreska pseudotaktowa	!
2E\	.
=30-	=30-
!LO:TX:t=P:problem=cezura na 3. linii	!
2D,</	-net
4D/	Sal-
4C/	.
2.BB-/	-va-
4AA/	.
=31-	=31-
2GG/	.
!LO:TX:t=P:problem=kreska pseudotaktowa	!
2GG/	.
2.C/	-to-
4BB-/	.
=32-	=32-
4AA/	.
4GG/	.
!LO:TX:t=P:problem=kreska pseudotaktowa	!
2FF/	.
!LO:LB:g=original	!
2GG/	.
2AA/	.
=33-	=33-
!LO:TX:t=P:problem=cezura na 3. linii	!
2D,<\	-rem
4A\	Sal-
!LO:TX:t=P:problem=kreska pseudotaktowa	!
4G\	.
4F\	.
4E\	.
4D\	.
4C\	.
=34-	=34-
2.BB-/	-va-
4AA/	.
2GG/	.
2F#X\	.
=35-	=35-
2G\	-to-
2GG/	.
!LO:TX:t=P:problem=kreska pseudotaktowa	!
0Dl;	rem
=36||	=36||
*M2/1	*
*met(C|)	*
1D	Be-
2C/	-ne-
2BB-/	-di-
=37-	=37-
!LO:TX:t=P:problem=kreska pseudotaktowa	!
1AA	-xi-
!LO:TX:t=P:problem=cezura na 2. linii	!
2D,<\	-sti
4D\	Do-
4E\	.
=38-	=38-
4Fny\	.
4G\	.
4A\	.
!LO:TX:t=P:problem=kreska pseudotaktowa	!
4G\	.
2F\	.
!LO:TX:b:t=P:problem=# below	!
2C#X/	.
=39-	=39-
1.D	.
!LO:TX:t=P:problem=kreska pseudotaktowa	!
2D/	-mi-
=40-	=40-
!LO:TX:t=P:problem=cezura na 1. linii	!
2AA,</	-ne
4A\	Ter-
4G\	.
4F\	.
4E\	.
!LO:TX:t=P:problem=kreska pseudotaktowa	!
2D\	.
!LO:LB:g=original	!
=41-	=41-
!LO:TX:t=P:problem=cezura na 2. linii	!
!LO:TX:t=P:problem=kreska pseudotaktowa	!
1Cny,<	-ram
2.D\	Ter-
4E\	.
=42-	=42-
2F\	.
4E\	ram
!LO:TX:t=P:problem=kreska pseudotaktowa	!
4D\	.
0E-X	tu-
=43-	=43-
.	.
!LO:TX:t=P:problem=kreska pseudotaktowa	!
!LO:TX:t=P:problem=cezura na 2. linii	!
1D,<	-am
=44-	=44-
2BB-/	a-
2C/	-ver-
4D\	-ti-
4Eny\	.
1F\	.
=45-	=45-
.	.
!LO:TX:t=P:problem=kreska pseudotaktowa	!
2E\	.
!LO:TX:t=P:problem=cezura na 4. linii	!
2F,<\	-sti
2A\	Cap-
=46-	=46-
2F\	-ti-
!LO:TX:t=P:problem=kreska pseudotaktowa	!
2C#X/	-vi-
2D/	-ta-
!LO:TX:t=P:problem=cezura na 2. linii	!
2AA,</	tem
=47-	=47-
2F\	Cap-
1D	-ti-
!LO:TX:t=P:problem=kreska pseudotaktowa	!
2C#X/	-vi-
=48-	=48-
2.D/	-ta-
4Cny/	.
4BBn/	.
4AA/	.
*custos:AA	*
!LO:TX:t=P:problem=kreska pseudotaktowa	!
2BB/	.
!LO:LB:g=original	!
=49-	=49-
!LO:TX:t=P:problem=cezura na 1. linii	!
2AA,</	-tem
2.FF/	Ja-
4GG/	.
4AA/	.
!LO:TX:t=P:problem=kreska pseudotaktowa	!
4BB-y/	.
=50-	=50-
2.C/	.
4BB-/	.
2AA/	.
1BB-X/	.
=51-	=51-
.	.
!LO:TX:t=P:problem=kreska pseudotaktowa	!
2FF/	.
2GG/	.
2AA/	.
=52-	=52-
2.BB-/	.
4AA/	.
2GG/	.
2FF#X/	.
=53-	=53-
*lig	*
1GG	.
1G	.
*Xlig	*
=54-	=54-
0Dl;	-cob.
=55||	=55||
*M2/1	*
*met(C|)	*
*lig	*
1D	Glo-
1C	.
*Xlig	*
=56-	=56-
2.F\	.
4FF/	-ri-
!LO:TX:t=P:problem=cezura pod 1. linią	!
2FF,</	-a
!LO:TX:t=P:problem=kreska pseudotaktowa	!
[<2F\	Pa-
=57-	=57-
!LO:N:xstem:cue	!
4F]	.
4E\	.
1D	.
4C#X/	.
!LO:TX:t=P:problem=kreska pseudotaktowa	!
4BB-/	.
!LO:LB:g=original	!
=58-	=58-
2C#X/	.
2D/	.
!LO:TX:t=P:problem=ceura na 1. polu	!
2AA,</	-tri
2A\	et
=59-	=59-
2.D\	Fi-
4D\	-li-
!LO:TX:t=P:problem=kreska pseudotaktowa	!
1AA	-o
=60-	=60-
2A\	et
2AA/	Spi-
4Cny/	-ri-
4C/	-tu-
!LO:TX:t=P:problem=cezura na 3. linii	!
!LO:TX:t=P:problem=kreska pseudotaktowa	!
2D,<\	-i
=61-	=61-
4D\	San-
4E\	.
4F\	.
!LO:TX:t=P:problem=kreska pseudotaktowa	!
4G\	.
2A\	.
!LO:TX:t=P:problem=kreska pseudotaktowa	!
2E\	.
=62-	=62-
2F\	.
4D\	.
!LO:TX:t=P:problem=kreska pseudotaktowa	!
4E\	.
2F\	.
2.FF/	.
=63-	=63-
.	.
4GG/	.
4AA/	.
4BB-/	.
2C/	.
!LO:TX:b:t=P:problem=♭ below	!
2BB-X/	.
=64-	=64-
!LO:TX:t=P:problem=kreska pseudotaktowa	!
1C	.
!LO:TX:t=P:problem=cezura pod 1. linią	!
2FF,</	-cto
1F\	Si-
=65-	=65-
.	.
*custos:D	*
!LO:TX:t=P:problem=kreska pseudotaktowa	!
2E\	-cut
*lig	*
!LO:LB:g=original	!
1D	e-
=66-	=66-
1C	.
*Xlig	*
!LO:TX:t=P:problem=kreska pseudotaktowa	!
!LO:TX:t=P:problem=cezura pod 1. linią	!
1FF,<	-rat
=67-	=67-
(4F\	Si-
4E\)	.
(4D\	-cut
!LO:TX:t=P:problem=kreska pseudotaktowa	!
4E\)	.
4F\	e-
4G\	.
!LO:TX:t=P:problem=kreska pseudotaktowa	!
2A\	.
=68-	=68-
!LO:TX:t=P:problem=cezura na 3. linii	!
2D,</	-rat
1D	in
!LO:TX:t=P:problem=kreska pseudotaktowa	!
2C#X/	prin-
=69-	=69-
1.D	-ci-
!LO:TX:t=P:problem=kreska pseudotaktowa	!
2D\	-pi-
=70-	=70-
1.AA	-o
!LO:TX:t=P:problem=kreska pseudotaktowa	!
2Cny/	et
=71-	=71-
4D\	nunc
4E\	.
1F	.
!LO:TX:t=P:problem=kreska pseudotaktowa	!
2E\	et
=72-	=72-
2.F\	sem-
4E\	.
2.D/	.
!LO:TX:t=P:problem=kreska pseudotaktowa	!
4C/	.
=73-	=73-
*lig	*
1BB-	.
1C	.
*Xlig	*
=74-	=74-
!LO:TX:t=P:problem=cezura pod 1. linią	!
!LO:TX:t=P:problem=kreska pseudotaktowa	!
1FF,<	-per
!LO:LB:g=original	!
2r	.
!LO:TX:t=P:problem=kreska pseudotaktowa	!
2C/	et
=75-	=75-
2D\	in
1F	sae-
!LO:TX:t=P:problem=kreska pseudotaktowa	!
2E\	.
=76-	=76-
4D\	.
4E\	.
4F\	.
4G\	.
1.A	.
=77-	=77-
.	.
!LO:TX:t=P:problem=kreska pseudotaktowa	!
2AA/	-cu-
!LO:TX:t=P:problem=cezura na 2. linii	!
2D,</	la
1D\	sae-
=78-	=78-
.	.
2C/	cu-
1BBn	-lo-
=79-	=79-
!LO:TX:t=P:problem=cezura na 1. linii	!
2AA,</	-rum
4A\	A-
!LO:TX:t=P:problem=kreska pseudotaktowa	!
4G\	.
4F/	.
4E/	.
4D/	.
4C/	.
=80-	=80-
2BB-y/	.
!LO:TX:t=P:problem=kreska pseudotaktowa	!
2C/	.
2AA/	.
2.BB-/	.
=81-	=81-
.	.
4C/	.
!LO:TX:t=P:problem=kreska pseudotaktowa	!
2D\	.
2G\	.
4A\	.
4G\	.
=82-	=82-
2F#X\	.
2D\	.
2G\	.
!LO:TX:a:t=P:problem=# above	!
!LO:TX:t=P:problem=kreska pseudotaktowa	!
2F#X\	-men
=83-	=83-
2B-\	A-
2.A\	.
8G\L	.
8Fny\J	.
2G\	.
=84-	=84-
0Dl;;	-men.
==	==
*-	*-
!!!RDF**kern: > = above
!!!RDF**kern: < = below
!!!RDF**kern: l = terminal long
!!!ENC: Andrzej Kubiczek
!!!END: 2021-03-28
!!!ENC: Kamil Watkowski
!!!END: 2021-03-10
!!!YEC: Copyright 2022 Narodowy Instytut Fryderyka Chopina (https://polishscores.org)
!!!YEM: Licence CC BY 4.0 (https://creativecommons.org/licenses/by/4.0)
